logos/recoil-icon.svg

<?xml version="1.0" encoding="UTF-8"?>
<svg width="256px" height="596px" viewBox="0 0 256 596" version="1.1" xmlns="http://www.w3.org/2000/svg" preserveAspectRatio="xMidYMid">
    <title>Recoil</title>
    <g>
        <path d="M128.011254,0 C155.833137,0 178.368202,22.5350648 178.368202,50.3569482 C178.368202,71.0964772 165.802795,88.9213499 147.853695,96.6498536 L147.308142,96.8809529 L147.308142,118.094313 C147.308142,138.572144 162.529125,156.005779 182.775622,158.853179 L183.39068,158.934987 L189.470521,159.72801 C222.380968,163.89138 247.889868,187.549894 254.432306,220.063829 C260.974745,252.577764 246.700334,284.298676 217.953257,300.952155 C205.082887,308.362368 191.061664,312.895449 176.266917,314.425622 L175.526537,314.499628 L84.1306587,323.090708 C74.8126407,323.949816 66.0233046,326.791482 57.8948208,331.483533 C41.3074271,341.065892 38.0692506,357.653286 40.5804895,369.945139 C43.066616,382.114074 52.353607,395.967033 70.9422374,398.551283 L77.5882205,399.419154 C117.627942,404.391407 147.887373,438.315911 148.488557,478.557447 L148.497676,479.778798 L148.497676,499.472198 C166.142434,507.270255 178.500373,524.981098 178.500373,545.533606 C178.500373,573.355489 155.965308,595.890554 128.143424,595.890554 C100.321541,595.890554 77.7864762,573.355489 77.7864762,545.533606 C77.7864762,524.859501 90.2871128,507.035283 108.170796,499.306785 L108.714366,499.075686 L108.714366,479.778798 C108.714366,459.300967 93.4933833,441.867332 73.2468859,439.019932 L72.631828,438.938123 L66.5519864,438.145101 C33.64154,433.981731 8.13263969,410.323217 1.59020154,377.809282 C-5.01832185,345.295347 9.3221739,313.574435 38.0692506,296.920956 C50.9396208,289.510743 64.9608437,284.977662 79.7555906,283.447489 L80.4959708,283.373483 L171.891849,274.782402 C181.209867,273.923294 189.999203,271.081629 198.127687,266.389578 C214.715081,256.807219 217.953257,240.219825 215.442018,227.927972 C212.955892,215.759037 203.668901,201.906078 185.08027,199.321828 L178.434287,198.453957 C138.394566,193.481704 108.135135,159.5572 107.533951,119.315664 L107.524831,118.094313 L107.524831,96.352271 C89.9461592,88.4881282 77.6543057,70.8433707 77.6543057,50.3569482 C77.6543057,22.5350648 100.18937,0 128.011254,0 Z M188.545328,336.968608 L216.763723,367.896497 C237.76495,390.991304 249.439276,420.757435 249.670663,451.872727 L249.67417,452.816023 L209.824773,452.816023 C209.824773,431.487674 201.987587,411.066108 187.78803,395.206302 L187.355794,394.727102 L139.377914,342.123256 L177.70735,338.488568 L178.918822,338.353769 C181.790029,338.027583 184.656653,337.650972 187.486094,337.158741 L188.545328,336.968608 Z M42.695217,143.537128 C42.695217,164.865476 50.5324037,185.287043 64.731961,201.146848 L65.1641965,201.626049 L113.274247,254.362065 L77.8525614,257.732412 L76.8003413,257.828607 C72.9426421,258.198528 69.0922222,258.757711 65.3291539,259.506155 L64.3050885,259.714969 L35.8223527,228.456654 C14.8211262,205.427271 3.14679957,175.597024 2.91541316,144.480443 L2.91190622,143.537128 L42.695217,143.537128 Z" fill="#1C1E21"></path>
    </g>
</svg>

<svg preserveAspectRatio="xMidYMid" viewBox="0 0 256 596" xmlns="http://www.w3.org/2000/svg">
  <path fill="#1C1E21" d="M128.011 0c27.822 0 50.357 22.535 50.357 50.357 0 20.74-12.565 38.564-30.514 46.293l-.546.231v21.213c0 20.478 15.221 37.912 35.468 40.76l.615.081 6.08.793c32.91 4.163 58.419 27.822 64.961 60.336 6.543 32.514-7.732 64.235-36.479 80.888-12.87 7.41-26.891 11.943-41.686 13.474l-.74.074-91.396 8.59c-9.318.86-18.108 3.701-26.236 8.394-16.588 9.582-19.826 26.17-17.315 38.461 2.487 12.17 11.774 26.022 30.362 28.606l6.646.868c40.04 4.972 70.3 38.897 70.9 79.138l.01 1.222v19.693c17.644 7.798 30.002 25.51 30.002 46.062 0 27.821-22.535 50.357-50.357 50.357-27.821 0-50.357-22.536-50.357-50.357 0-20.674 12.501-38.499 30.385-46.227l.543-.231v-19.297c0-20.478-15.22-37.912-35.467-40.76l-.615-.08-6.08-.794c-32.91-4.163-58.42-27.822-64.962-60.336-6.608-32.514 7.732-64.235 36.48-80.888 12.87-7.41 26.89-11.943 41.686-13.474l.74-.074 91.396-8.59c9.318-.86 18.107-3.701 26.236-8.393 16.587-9.583 19.825-26.17 17.314-38.462-2.486-12.169-11.773-26.022-30.362-28.606l-6.646-.868c-40.04-4.972-70.299-38.897-70.9-79.138l-.01-1.222V96.352c-17.578-7.864-29.87-25.509-29.87-45.995C77.654 22.535 100.19 0 128.011 0Zm60.534 336.969 28.219 30.927c21 23.095 32.675 52.861 32.907 83.977l.003.943h-39.85c0-21.328-7.836-41.75-22.036-57.61l-.432-.479-47.978-52.604 38.33-3.634 1.21-.135c2.872-.326 5.739-.703 8.568-1.195l1.06-.19ZM42.695 143.537c0 21.328 7.837 41.75 22.037 57.61l.432.479 48.11 52.736-35.421 3.37-1.053.097c-3.857.37-7.708.929-11.47 1.677l-1.025.209-28.483-31.258c-21-23.03-32.675-52.86-32.907-83.977l-.003-.943h39.783Z"/>
</svg>
